build/img/advant-icon-01.svg

<svg width="51" height="54" viewBox="0 0 51 54" fill="none" xmlns="http://www.w3.org/2000/svg">
<g opacity="0.5">
<path d="M38.8489 29.6596C40.8723 30.5561 42.1797 32.5652 42.1797 34.7779V37.4532C42.1797 37.8901 42.5338 38.2442 42.9707 38.2442C43.4075 38.2442 43.7617 37.8901 43.7617 37.4532V34.7779C43.7617 31.9399 42.0849 29.3631 39.481 28.2094L30.9026 24.5334C30.9028 24.5118 30.9045 24.49 30.9045 24.4685V21.0541C32.6712 19.4828 33.7871 17.1948 33.7871 14.6501L33.7897 8.04101C33.7897 6.28329 33.2611 4.59348 32.2611 3.15417C31.2842 1.74817 29.9286 0.676412 28.3409 0.0544686C28.032 -0.0663974 27.6806 0.0180823 27.4605 0.266248L26.2677 1.6117C25.5704 2.38298 24.5747 2.82532 23.5361 2.82532H21.1891C18.6808 2.82532 16.6401 4.8657 16.6401 7.37372V11.65V11.6501C16.6401 11.6501 16.6401 11.6501 16.6401 11.6502V14.65C16.6401 17.1959 17.757 19.485 19.5253 21.0564V24.4685C19.5253 24.5009 19.5277 24.5335 19.5284 24.566L11.0638 28.2455C8.3936 29.3692 6.66815 31.967 6.66815 34.8638V37.4533C6.66815 37.8902 7.02231 38.2443 7.45916 38.2443C7.89601 38.2443 8.25017 37.8902 8.25017 37.4533V34.8638C8.25017 32.6053 9.59541 30.5799 11.686 29.7001L15.8901 27.8726C16.5842 29.5532 17.7135 31.0057 19.1935 32.1076C20.9443 33.4111 23.0259 34.1001 25.2137 34.1001C26.9433 34.1001 28.6503 33.6548 30.1499 32.8123C30.3611 32.6937 30.5709 32.5656 30.7736 32.4316C31.138 32.1906 31.2381 31.6998 30.9971 31.3355C30.7561 30.9711 30.2654 30.871 29.901 31.112C29.73 31.225 29.5532 31.333 29.375 31.433C28.1114 32.1428 26.6724 32.5181 25.2136 32.5181C21.7209 32.5181 18.6405 30.4253 17.3403 27.2423L19.7876 26.1785C20.5191 28.5054 22.6963 30.1575 25.215 30.1575C27.7515 30.1575 29.9332 28.4916 30.6526 26.1475L33.1044 27.1982C32.858 27.8079 32.5414 28.3876 32.1578 28.9282C31.905 29.2844 31.9887 29.7782 32.345 30.031C32.4839 30.1296 32.6438 30.177 32.8021 30.177C33.0497 30.177 33.2936 30.061 33.4479 29.8437C33.8965 29.2115 34.2676 28.5337 34.5583 27.8212L38.8489 29.6596ZM18.2221 14.65V12.3686C18.5806 12.298 18.9284 12.177 19.2521 12.0086C19.7317 11.7592 20.1629 11.4016 20.4988 10.9745C20.769 10.6312 20.7096 10.1338 20.3663 9.86371C20.0229 9.59339 19.5256 9.65277 19.2555 9.99617C19.0574 10.2479 18.8038 10.4584 18.5221 10.6049C18.4204 10.6578 18.3199 10.6999 18.2221 10.7336V7.37372C18.2221 5.73802 19.5531 4.40733 21.1891 4.40733H23.5361C25.0211 4.40733 26.4445 3.77505 27.4465 2.6669L28.2635 1.74522C30.6767 2.90885 32.2077 5.32437 32.2077 8.04091V9.65699C31.2156 10.0242 30.1712 10.2124 29.0976 10.2124C26.7593 10.2124 24.5447 9.31854 22.8618 7.6955C22.5474 7.39228 22.0466 7.40135 21.7433 7.71575C21.4401 8.03025 21.449 8.53091 21.7635 8.83424C23.743 10.7432 26.3476 11.7944 29.0976 11.7944C30.1617 11.7944 31.2025 11.6387 32.203 11.3307C32.2057 11.3781 32.2051 14.65 32.2051 14.65C32.2051 18.5046 29.0687 21.6404 25.2136 21.6404C21.3585 21.6404 18.2221 18.5046 18.2221 14.65ZM25.2149 28.5754C23.1423 28.5754 21.3899 27.027 21.1383 24.9728C21.1178 24.8062 21.1073 24.6365 21.1073 24.4683V22.1731C22.3275 22.8416 23.7268 23.2225 25.2136 23.2225C26.7014 23.2225 28.1017 22.841 29.3225 22.1715V24.4685C29.3225 24.6281 29.313 24.7895 29.2939 24.9501C29.0539 27.0169 27.3004 28.5754 25.2149 28.5754Z" fill="white"/>
<path d="M31.7652 44.3614L27.9058 43.8006L26.1798 40.3039C25.9984 39.9365 25.6313 39.7083 25.2214 39.7083C24.8116 39.7083 24.4444 39.9366 24.2631 40.3039L22.5372 43.8007L18.6777 44.3615C18.2722 44.4204 17.9415 44.6992 17.815 45.089C17.6884 45.4787 17.7921 45.8985 18.0855 46.1844L20.8782 48.9062L20.2189 52.7494C20.1497 53.1533 20.3125 53.5537 20.644 53.7946C20.9755 54.0354 21.4067 54.0667 21.7695 53.876L25.2214 52.0614L28.6735 53.876C28.8312 53.9589 29.0018 53.9999 29.1716 53.9999C29.3923 53.9999 29.6115 53.9307 29.7988 53.7946C30.1303 53.5537 30.2933 53.1533 30.224 52.7493L29.5647 48.9062L32.3573 46.1844C32.6508 45.8985 32.7545 45.4787 32.6279 45.089C32.5014 44.6992 32.1708 44.4204 31.7652 44.3614ZM24.7613 41.0041L24.7618 41.0053C24.7616 41.0049 24.7614 41.0045 24.7613 41.0041C24.7612 41.0041 24.7612 41.0041 24.7613 41.0041ZM28.2673 47.9616C28.0154 48.2073 27.9005 48.5609 27.96 48.9076L28.4891 51.9917L25.7187 50.5355C25.4072 50.3718 25.0355 50.3719 24.7241 50.5355L21.9538 51.9917L22.483 48.9076C22.5424 48.5608 22.4276 48.2072 22.1755 47.9615L19.9345 45.7774L23.0315 45.3275C23.3799 45.2768 23.6808 45.0582 23.8362 44.7429L25.2214 41.9366L26.6064 44.7425C26.7621 45.0582 27.063 45.2768 27.4113 45.3274L30.5083 45.7774L28.2673 47.9616Z" fill="white"/>
<path d="M14.0033 44.3614L10.1439 43.8006L8.4179 40.3039C8.2365 39.9365 7.86937 39.7083 7.45952 39.7083C7.04967 39.7083 6.68254 39.9366 6.50124 40.3039L4.77526 43.8007L0.915777 44.3615C0.510254 44.4204 0.179612 44.6992 0.0530512 45.089C-0.07351 45.4787 0.0301646 45.8985 0.323576 46.1844L3.11626 48.9062L2.45698 52.7494C2.38779 53.1533 2.55063 53.5537 2.88212 53.7946C3.2136 54.0354 3.64475 54.0667 4.00756 53.876L7.45952 52.0614L10.9116 53.876C11.0693 53.9589 11.2399 53.9999 11.4097 53.9999C11.6303 53.9999 11.8496 53.9307 12.0369 53.7946C12.3684 53.5537 12.5314 53.1533 12.4621 52.7493L11.8028 48.9062L14.5954 46.1844C14.8889 45.8985 14.9926 45.4787 14.866 45.089C14.7395 44.6992 14.4089 44.4204 14.0033 44.3614ZM6.99926 41.0041L6.99979 41.0053C6.99968 41.0049 6.99947 41.0045 6.99926 41.0041ZM10.5054 47.9616C10.2535 48.2073 10.1386 48.5609 10.1981 48.9076L10.7272 51.9917L7.9568 50.5355C7.64535 50.3719 7.27369 50.3719 6.96224 50.5355L4.19192 51.9917L4.72105 48.9076C4.78054 48.5608 4.66568 48.2072 4.41361 47.9615L2.17264 45.7774L5.26959 45.3275C5.61795 45.2768 5.91885 45.0582 6.07431 44.7429L7.45952 41.9366L8.84452 44.7425C9.00019 45.0582 9.30109 45.2768 9.64935 45.3274L12.7464 45.7774L10.5054 47.9616Z" fill="white"/>
<path d="M50.3768 45.0889C50.2502 44.6991 49.9196 44.4203 49.514 44.3614L45.6546 43.8006L43.9286 40.3039C43.7472 39.9365 43.3801 39.7083 42.9702 39.7083C42.5604 39.7083 42.1932 39.9366 42.0119 40.3039L40.2859 43.8007L36.4265 44.3615C36.0209 44.4204 35.6903 44.6992 35.5637 45.089C35.4372 45.4787 35.5408 45.8985 35.8343 46.1844L38.6269 48.9062L37.9677 52.7494C37.8985 53.1533 38.0613 53.5537 38.3928 53.7946C38.7243 54.0354 39.1554 54.0667 39.5182 53.876L42.9702 52.0614L46.4223 53.876C46.58 53.9589 46.7506 53.9999 46.9204 53.9999C47.141 53.9999 47.3603 53.9307 47.5476 53.7946C47.8791 53.5537 48.0421 53.1533 47.9728 52.7493L47.3135 48.9062L50.1061 46.1844C50.3996 45.8984 50.5034 45.4787 50.3768 45.0889ZM42.5099 41.0041L42.5105 41.0053C42.5103 41.0049 42.5101 41.0045 42.5099 41.0041C42.5098 41.0041 42.5098 41.0041 42.5099 41.0041ZM46.016 47.9616C45.7641 48.2073 45.6492 48.5609 45.7087 48.9076L46.2378 51.9917L43.4674 50.5355C43.1559 50.3719 42.7843 50.3719 42.4728 50.5355L39.7025 51.9917L40.2316 48.9076C40.2911 48.5608 40.1763 48.2072 39.9242 47.9615L37.6832 45.7774L40.7802 45.3275C41.1285 45.2768 41.4294 45.0582 41.5849 44.7429L42.9701 41.9366L44.3551 44.7425C44.5108 45.0582 44.8117 45.2768 45.1599 45.3274L48.257 45.7774L46.016 47.9616Z" fill="white"/>
</g>
</svg>

<svg width="51" height="54" fill="none" xmlns="http://www.w3.org/2000/svg"><path d="M38.849 29.66a5.602 5.602 0 013.33 5.118v2.675a.79.79 0 101.583 0v-2.675a7.189 7.189 0 00-4.281-6.569l-8.578-3.676.002-.065v-3.414a8.552 8.552 0 002.882-6.404l.003-6.609a8.524 8.524 0 00-1.529-4.887 8.563 8.563 0 00-3.92-3.1.791.791 0 00-.88.212l-1.193 1.346a3.69 3.69 0 01-2.732 1.213H21.19a4.554 4.554 0 00-4.549 4.549v7.276a8.552 8.552 0 002.885 6.406v3.412c0 .033.003.066.003.098l-8.464 3.68a7.166 7.166 0 00-4.396 6.618v2.59a.791.791 0 101.582 0v-2.59a5.59 5.59 0 013.436-5.164l4.204-1.827a10.04 10.04 0 003.303 4.235 10.008 10.008 0 006.02 1.992 10.097 10.097 0 005.56-1.668.791.791 0 10-.872-1.32 8.513 8.513 0 01-4.687 1.406 8.472 8.472 0 01-7.874-5.276l2.448-1.064a5.696 5.696 0 005.427 3.98 5.687 5.687 0 005.438-4.01l2.451 1.05a8.472 8.472 0 01-.946 1.73.79.79 0 101.29.916c.449-.633.82-1.31 1.11-2.023l4.29 1.839zM18.222 14.65v-2.281a3.842 3.842 0 002.277-1.394.791.791 0 10-1.243-.979 2.279 2.279 0 01-1.034.738v-3.36a2.97 2.97 0 012.967-2.967h2.347a5.279 5.279 0 003.91-1.74l.817-.922a6.95 6.95 0 013.945 6.296v1.616a8.923 8.923 0 01-3.11.555 8.94 8.94 0 01-6.236-2.516.791.791 0 00-1.098 1.138 10.515 10.515 0 007.334 2.96c1.064 0 2.105-.155 3.105-.463.003.047.002 3.319.002 3.319a6.998 6.998 0 01-6.991 6.99c-3.855 0-6.992-3.135-6.992-6.99zm6.993 13.925a4.109 4.109 0 01-4.108-4.107v-2.295a8.521 8.521 0 004.107 1.05 8.52 8.52 0 004.109-1.051v2.296a4.102 4.102 0 01-4.108 4.107zm6.55 15.786l-3.86-.56-1.725-3.497a1.062 1.062 0 00-.959-.596c-.41 0-.777.229-.958.596L22.537 43.8l-3.86.56a1.062 1.062 0 00-.862.728c-.127.39-.023.81.27 1.095l2.793 2.722-.66 3.843a1.067 1.067 0 001.552 1.127l3.451-1.815 3.453 1.815a1.069 1.069 0 001.55-1.127l-.66-3.843 2.793-2.722c.294-.285.398-.705.27-1.095a1.062 1.062 0 00-.862-.728zm-7.004-3.357v.001zm3.506 6.958a1.069 1.069 0 00-.307.946l.53 3.084-2.771-1.456a1.069 1.069 0 00-.995 0l-2.77 1.456.529-3.084c.06-.347-.055-.7-.308-.947l-2.24-2.184 3.097-.45c.348-.05.649-.269.804-.584l1.385-2.806 1.385 2.806c.156.315.457.534.805.584l3.097.45-2.24 2.185zm-14.264-3.601l-3.86-.56-1.725-3.497a1.062 1.062 0 00-.958-.596c-.41 0-.777.229-.959.596L4.775 43.8l-3.86.56a1.062 1.062 0 00-.862.728c-.127.39-.023.81.27 1.095l2.793 2.722-.659 3.843c-.07.404.094.805.425 1.046.332.24.763.272 1.126.081L7.46 52.06l3.452 1.815a1.069 1.069 0 001.55-1.127l-.66-3.843 2.793-2.722c.294-.285.398-.705.271-1.095a1.062 1.062 0 00-.863-.728zM7 41.004v.001zm3.506 6.958a1.069 1.069 0 00-.307.946l.53 3.084-2.771-1.456a1.069 1.069 0 00-.995 0l-2.77 1.456.529-3.084a1.07 1.07 0 00-.307-.947l-2.241-2.184 3.097-.45c.348-.05.649-.269.804-.584l1.386-2.806 1.385 2.806c.155.315.456.534.804.584l3.097.45-2.24 2.185zm39.871-2.873a1.062 1.062 0 00-.863-.728l-3.86-.56-1.725-3.497a1.062 1.062 0 00-.959-.596c-.41 0-.777.229-.958.596L40.286 43.8l-3.86.56a1.062 1.062 0 00-.862.728c-.127.39-.023.81.27 1.095l2.793 2.722-.66 3.843c-.069.404.094.805.426 1.046.331.24.762.272 1.125.081l3.452-1.815 3.452 1.815a1.069 1.069 0 001.55-1.127l-.659-3.843 2.793-2.722c.294-.286.397-.705.27-1.095zm-7.867-4.085v.001zm3.506 6.958a1.066 1.066 0 00-.307.946l.529 3.084-2.77-1.456a1.07 1.07 0 00-.995 0l-2.77 1.456.529-3.084a1.07 1.07 0 00-.308-.947l-2.24-2.184 3.096-.45c.349-.05.65-.269.805-.584l1.385-2.806 1.385 2.806c.156.315.457.534.805.584l3.097.45-2.241 2.185z" opacity=".5" fill="#fff"/></svg>
